X:1
T: Liberty Bell \`i First part
C: J.P. Souza, arr. G Hirst
M:6/8
L:1/8
K:G
(g2fe2_e|d2_dc2B)|.A.B.c .Bz.A|.dzz z2d[|:.Bz.B (B^AB)|.gz.d .dz.B|.cz.c .cz.d|e3-ezc|.Az.A (A^GA)|.fz.e .ez.c|.Bz.B .Bz.c|d3-dzd|.Bz.B (B^AB)|.bz.g .gz.d|.^cz.a .az.a|a3-azg|.fz.a .a.^g.a|.ez.a .a.^g.a|.dz(^c .d)z(c|1.d)zz=c3:|]2.dzz z3[|:z6|z6|z6|z6|z6|z6|z6|z3 z2d|.ez.e (e^de)|f3 f3|g2 g (aga)|b3-bzb|.az.g .ez.c|B3d3|A3B3|1G3-Gzz:|].G.B.d .gzz!fine!||:
K:C
(E3F3|^F3G3)|.ez.e .ez^d|e3-e.c.G|(E3F3|^F3G3)|.fz.f .fze|f3-fze|(d3^c3|.d)zz z3|(e3^d3|.e)zz z3|1(B3d3)|(c2d)(A2c)|(B2c)(A2B)|(G2A)(F2G):|]2(A3f3)|.ez.c .dz(B|c2.G .A.G.E|C3z3||
W: DC al fine
